**kern	**silbe	**harmony	**phrase	**leadinstrument	**rhyme	**timestamp	**harte
*ICvox	*	*M12/8	*	*	*	*	*M12/8
*VRlead	*	*	*	*	*	*	*
*Hstimme	*	*	*	*	*	*	*
*F:	*	*F:	*	*	*	*	*F:
*M12/8	*	*	*	*	*	*	*
*clefG2	*	*	*	*	*	*	*
r;	.	1r;	.	r	.	0	N.C.
=1	=1	=1	=1	=1	=1	=1	=1
*>Letter>A	*>Letter>A	*>Letter>A	*>Letter>A	*>Letter>A	*>Letter>A	*>Letter>A	*>Letter>A
*>Label>Intro	*>Label>Intro	*>Label>Intro	*>Label>Intro	*>Label>Intro	*>Label>Intro	*>Label>Intro	*>Label>Intro
1.r	.	1.B-MM	newline	guitar	.	0.432	B-:maj7
=2	=2	=2	=2	=2	=2	=2	=2
1.r	.	1.Dm	.	guitar	.	4.174	D:min
=3	=3	=3	=3	=3	=3	=3	=3
1.r	.	1.GMm	newline	guitar	.	7.917	G:7
=4	=4	=4	=4	=4	=4	=4	=4
1.r	.	1.CMm	.	guitar	.	11.156	C:7
=5	=5	=5	=5	=5	=5	=5	=5
*>Letter>B	*>Letter>B	*>Letter>B	*>Letter>B	*>Letter>B	*>Letter>B	*>Letter>B	*>Letter>B
*>Label>Chorus	*>Label>Chorus	*>Label>Chorus	*>Label>Chorus	*>Label>Chorus	*>Label>Chorus	*>Label>Chorus	*>Label>Chorus
4.d	Time	1.FM	newline	voice	.	14.395	F:maj
4c	_	.	.	.	.	.	.
8d	_	.	.	.	.	.	.
4.c	_	.	.	.	.	.	.
8d	is	.	.	.	.	.	.
8c	on	.	.	.	.	.	.
[8A	my	.	.	.	.	.	.
=6	=6	=6	=6	=6	=6	=6	=6
8A]	_	2.B-M	.	voice	.	17.984	B-:maj
4F	side	.	.	.	.	.	.
4r	.	.	.	.	.	.	.
16d	yes	.	.	.	.	.	.
16f	it	.	.	.	.	.	.
4d	is	2.CM	.	voice	.	19.778	C:maj
8r	.	.	.	.	.	.	.
4.r	.	.	.	.	.	.	.
=7	=7	=7	=7	=7	=7	=7	=7
4.d	Time	1.FM	newline	voice	.	21.573	F:maj
4c	_	.	.	.	.	.	.
8d	_	.	.	.	.	.	.
4.c	_	.	.	.	.	.	.
8d	is	.	.	.	.	.	.
8c	on	.	.	.	.	.	.
[8A	my	.	.	.	.	.	.
=8	=8	=8	=8	=8	=8	=8	=8
8A]	_	2.B-M	.	voice	.	25.208	B-:maj
4F	side	.	.	.	.	.	.
4r	.	.	.	.	.	.	.
16d	yes	.	.	.	.	.	.
16f	it	.	.	.	.	.	.
4d	is	2.CM	.	voice	.	27.026	C:maj
8r	.	.	.	.	.	.	.
4.r	.	.	.	.	.	.	.
=9	=9	=9	=9	=9	=9	=9	=9
*>Letter>C	*>Letter>C	*>Letter>C	*>Letter>C	*>Letter>C	*>Letter>C	*>Letter>C	*>Letter>C
*>Label>Verse	*>Label>Verse	*>Label>Verse	*>Label>Verse	*>Label>Verse	*>Label>Verse	*>Label>Verse	*>Label>Verse
4r	.	2.Dm	newline	voice	.	28.844	D:min
8A	Now	.	.	.	.	.	.
8d	you	.	.	.	.	.	.
8c	al-	.	.	.	.	.	.
8A	-ways	.	.	.	.	.	.
16d	say	2.CM	.	voice	.	30.678	C:maj
16c	_	.	.	.	.	.	.
4d	_	.	.	.	.	.	.
4.r	.	.	.	.	.	.	.
=10	=10	=10	=10	=10	=10	=10	=10
8r	.	2.Dm	.	voice	.	32.512	D:min
8A	That	.	.	.	.	.	.
8c	you	.	.	.	.	.	.
8d	want	.	.	.	.	.	.
8c	to	.	.	.	.	.	.
8A	be	.	.	.	.	.	.
4.G	free	2.GMm	.	voice	A	34.346	G:7
4r	.	.	.	.	.	.	.
8G	but	.	.	.	.	.	.
=11	=11	=11	=11	=11	=11	=11	=11
4.c	you'll	2.CM	newline	voice	.	36.18	C:maj
4.c	come	.	.	.	.	.	.
16B-	run-	2.B-M	.	voice	.	38.001	B-:maj
16B-	-ning	.	.	.	.	.	.
4B-	back	.	.	.	.	.	.
4.r	.	.	.	.	.	.	.
=12	=12	=12	=12	=12	=12	=12	=12
4.c	You'll	2.CM	.	voice	.	39.822	C:maj
4.c	come	.	.	.	.	.	.
16B-	run-	2.B-M	.	voice	.	41.644	B-:maj
16B-	-ning	.	.	.	.	.	.
4B-	back	.	.	.	.	.	.
4.r	.	.	.	.	.	.	.
=13	=13	=13	=13	=13	=13	=13	=13
4.c	You'll	2.CM	newline	voice	.	43.465	C:maj
4.c	come	.	.	.	.	.	.
16B-	run-	2.B-M	.	voice	.	45.248	B-:maj
16B-	-ning	.	.	.	.	.	.
4B-	back	.	.	.	.	.	.
4r	.	.	.	.	.	.	.
8B-	to	.	.	.	.	.	.
=14	=14	=14	=14	=14	=14	=14	=14
4.c	me	2.CM	.	voice	A	47.031	C:maj
4.d	_	.	.	.	.	.	.
4.e	_	2.CMm	.	voice	.	48.815	C:7
4.r	.	.	.	.	.	.	.
=15	=15	=15	=15	=15	=15	=15	=15
*>Letter>B	*>Letter>B	*>Letter>B	*>Letter>B	*>Letter>B	*>Letter>B	*>Letter>B	*>Letter>B
*>Label>Chorus	*>Label>Chorus	*>Label>Chorus	*>Label>Chorus	*>Label>Chorus	*>Label>Chorus	*>Label>Chorus	*>Label>Chorus
4.d	Time	1.FM	newline	voice	.	50.598	F:maj
4c	_	.	.	.	.	.	.
8d	_	.	.	.	.	.	.
4.c	_	.	.	.	.	.	.
8d	is	.	.	.	.	.	.
8c	on	.	.	.	.	.	.
[8A	my	.	.	.	.	.	.
=16	=16	=16	=16	=16	=16	=16	=16
8A]	_	2.B-M	.	voice	.	54.256	B-:maj
4F	side	.	.	.	.	.	.
4r	.	.	.	.	.	.	.
16d	yes	.	.	.	.	.	.
16f	it	.	.	.	.	.	.
4d	is	2.CM	.	voice	.	56.085	C:maj
8r	.	.	.	.	.	.	.
4.r	.	.	.	.	.	.	.
=17	=17	=17	=17	=17	=17	=17	=17
4.d	Time	1.FM	newline	voice	.	57.914	F:maj
4c	_	.	.	.	.	.	.
8d	_	.	.	.	.	.	.
4.c	_	.	.	.	.	.	.
8d	is	.	.	.	.	.	.
8c	on	.	.	.	.	.	.
[8A	my	.	.	.	.	.	.
=18	=18	=18	=18	=18	=18	=18	=18
8A]	_	2.B-M	.	voice	.	61.519	B-:maj
4F	side	.	.	.	.	.	.
4r	.	.	.	.	.	.	.
16d	yes	.	.	.	.	.	.
16f	it	.	.	.	.	.	.
4d	is	2.CM	.	voice	.	63.321	C:maj
8r	.	.	.	.	.	.	.
4.r	.	.	.	.	.	.	.
=19	=19	=19	=19	=19	=19	=19	=19
*>Letter>C	*>Letter>C	*>Letter>C	*>Letter>C	*>Letter>C	*>Letter>C	*>Letter>C	*>Letter>C
*>Label>Verse	*>Label>Verse	*>Label>Verse	*>Label>Verse	*>Label>Verse	*>Label>Verse	*>Label>Verse	*>Label>Verse
4r	.	2.Dm	newline	voice	.	65.123	D:min
8A	You're	.	.	.	.	.	.
8d	search-	.	.	.	.	.	.
16c	-in'	.	.	.	.	.	.
16A	for	.	.	.	.	.	.
8d	good	.	.	.	.	.	.
4c	times	2.CM	.	voice	.	66.952	C:maj
8r	.	.	.	.	.	.	.
4.r	.	.	.	.	.	.	.
=20	=20	=20	=20	=20	=20	=20	=20
4r	.	2.Dm	.	voice	.	68.78	D:min
8c	but	.	.	.	.	.	.
8d	just	.	.	.	.	.	.
8c	wait	.	.	.	.	.	.
8A	and	.	.	.	.	.	.
4.G	see	2.GMm	.	voice	B	70.609	G:7
4.r	.	.	.	.	.	.	.
=21	=21	=21	=21	=21	=21	=21	=21
4.c	You'll	2.CM	newline	voice	.	72.438	C:maj
4.c	come	.	.	.	.	.	.
16B-	run-	2.B-M	.	voice	.	74.238	B-:maj
16B-	-ning	.	.	.	.	.	.
4B-	back	.	.	.	.	.	.
4.r	.	.	.	.	.	.	.
=22	=22	=22	=22	=22	=22	=22	=22
4.c	You'll	2.CM	.	voice	.	76.037	C:maj
4.c	come	.	.	.	.	.	.
16B-	run-	2.B-M	.	voice	.	77.837	B-:maj
16B-	-ning	.	.	.	.	.	.
4B-	back	.	.	.	.	.	.
4.r	.	.	.	.	.	.	.
=23	=23	=23	=23	=23	=23	=23	=23
4.c	You'll	2.CM	newline	voice	.	79.636	C:maj
4.c	come	.	.	.	.	.	.
16B-	run-	2.B-M	.	voice	.	81.424	B-:maj
16B-	-ning	.	.	.	.	.	.
4B-	back	.	.	.	.	.	.
8r	.	.	.	.	.	.	.
8r	.	.	.	.	.	.	.
8B-	to	.	.	.	.	.	.
=24	=24	=24	=24	=24	=24	=24	=24
4.c	me	2.CM	.	voice	B	83.212	C:maj
4.d	_	.	.	.	.	.	.
4.e	_	2.CMm	.	voice	.	85	C:7
4.r	.	.	.	.	.	.	.
=25	=25	=25	=25	=25	=25	=25	=25
*>Letter>A	*>Letter>A	*>Letter>A	*>Letter>A	*>Letter>A	*>Letter>A	*>Letter>A	*>Letter>A
*>Label>Bridge	*>Label>Bridge	*>Label>Bridge	*>Label>Bridge	*>Label>Bridge	*>Label>Bridge	*>Label>Bridge	*>Label>Bridge
1.r	.	1.B-M	newline	guitar	.	86.788	B-:maj
=26	=26	=26	=26	=26	=26	=26	=26
1.r	.	1.FM	.	guitar	.	90.539	F:maj
=27	=27	=27	=27	=27	=27	=27	=27
1.r	.	1.B-M	newline	guitar	.	94.289	B-:maj
=28	=28	=28	=28	=28	=28	=28	=28
1.r	.	1.FM	.	guitar	.	97.997	F:maj
=29	=29	=29	=29	=29	=29	=29	=29
1.r	.	1.B-M	newline	guitar	.	101.706	B-:maj
=30	=30	=30	=30	=30	=30	=30	=30
1.r	.	1.Dm	.	guitar	.	105.473	D:min
=31	=31	=31	=31	=31	=31	=31	=31
1.r	.	1.GMm	newline	guitar	.	109.241	G:7
=32	=32	=32	=32	=32	=32	=32	=32
1.r	.	1.CMm	.	guitar	.	112.786	C:7
=33	=33	=33	=33	=33	=33	=33	=33
*>Letter>B	*>Letter>B	*>Letter>B	*>Letter>B	*>Letter>B	*>Letter>B	*>Letter>B	*>Letter>B
*>Label>Chorus	*>Label>Chorus	*>Label>Chorus	*>Label>Chorus	*>Label>Chorus	*>Label>Chorus	*>Label>Chorus	*>Label>Chorus
4.d	Time	1.FM	newline	guitar	.	116.33	F:maj
4c	_	.	.	.	.	.	.
8d	_	.	.	.	.	.	.
4.c	_	.	.	.	.	.	.
8d	is	.	.	.	.	.	.
8c	on	.	.	.	.	.	.
[8A	my	.	.	.	.	.	.
=34	=34	=34	=34	=34	=34	=34	=34
8A]	_	2.B-M	.	guitar	.	119.969	B-:maj
4F	side	.	.	.	.	.	.
8r	.	.	.	.	.	.	.
8r	.	.	.	.	.	.	.
16d	yes	.	.	.	.	.	.
16f	it	.	.	.	.	.	.
4d	is	2.CM	.	guitar	.	121.788	C:maj
8r	.	.	.	.	.	.	.
4.r	.	.	.	.	.	.	.
=35	=35	=35	=35	=35	=35	=35	=35
4.d	Time	1.FM	newline	guitar	.	123.607	F:maj
4c	_	.	.	.	.	.	.
8d	_	.	.	.	.	.	.
4.c	_	.	.	.	.	.	.
8d	is	.	.	.	.	.	.
8c	on	.	.	.	.	.	.
[8A	my	.	.	.	.	.	.
=36	=36	=36	=36	=36	=36	=36	=36
8A]	_	2.B-M	.	guitar	.	127.262	B-:maj
4F	side	.	.	.	.	.	.
8r	.	.	.	.	.	.	.
8r	.	.	.	.	.	.	.
16d	yes	.	.	.	.	.	.
16f	it	.	.	.	.	.	.
4d	is	2.CM	.	guitar	.	129.089	C:maj
8r	.	.	.	.	.	.	.
4.r	.	.	.	.	.	.	.
=37	=37	=37	=37	=37	=37	=37	=37
*>Letter>C	*>Letter>C	*>Letter>C	*>Letter>C	*>Letter>C	*>Letter>C	*>Letter>C	*>Letter>C
*>Label>Verse	*>Label>Verse	*>Label>Verse	*>Label>Verse	*>Label>Verse	*>Label>Verse	*>Label>Verse	*>Label>Verse
4r	.	2.Dm	newline	guitar	.	130.916	D:min
8A	'Cause	.	.	.	.	.	.
8d	I	.	.	.	.	.	.
8c	got	.	.	.	.	.	.
16A	the	.	.	.	.	.	.
[16d	real	.	.	.	.	.	.
16d]	_	2.CM	.	guitar	.	132.791	C:maj
4c	love	.	.	.	.	.	.
16r	.	.	.	.	.	.	.
4.r	.	.	.	.	.	.	.
=38	=38	=38	=38	=38	=38	=38	=38
4r	.	2.Dm	.	guitar	.	134.667	D:min
8c	The	.	.	.	.	.	.
8d	kind	.	.	.	.	.	.
8c	that	.	.	.	.	.	.
8A	you	.	.	.	.	.	.
4.G	need	2.GMm	.	guitar	C	136.542	G:7
4.r	.	.	.	.	.	.	.
=39	=39	=39	=39	=39	=39	=39	=39
4.c	You'll	2.CM	newline	guitar	.	138.417	C:maj
4.c	come	.	.	.	.	.	.
16B-	run-	2.B-M	.	guitar	.	140.243	B-:maj
16B-	-ning	.	.	.	.	.	.
4B-	back	.	.	.	.	.	.
4.r	.	.	.	.	.	.	.
=40	=40	=40	=40	=40	=40	=40	=40
4.c	You'll	2.CM	.	guitar	.	142.068	C:maj
4.c	come	.	.	.	.	.	.
16B-	run-	2.B-M	.	guitar	.	143.894	B-:maj
16B-	-ning	.	.	.	.	.	.
4B-	back	.	.	.	.	.	.
4.r	.	.	.	.	.	.	.
=41	=41	=41	=41	=41	=41	=41	=41
4.c	You'll	2.CM	newline	guitar	.	145.72	C:maj
4.c	come	.	.	.	.	.	.
16B-	run-	2.B-M	.	guitar	.	147.561	B-:maj
16B-	-ning	.	.	.	.	.	.
4B-	back	.	.	.	.	.	.
4r	.	.	.	.	.	.	.
8B-	to	.	.	.	.	.	.
=42	=42	=42	=42	=42	=42	=42	=42
4.c	me	2.CM	.	guitar	C	149.401	C:maj
4.d	_	.	.	.	.	.	.
4.e	_	2.CMm	.	guitar	.	151.242	C:7
4.r	.	.	.	.	.	.	.
=43	=43	=43	=43	=43	=43	=43	=43
*>Letter>B	*>Letter>B	*>Letter>B	*>Letter>B	*>Letter>B	*>Letter>B	*>Letter>B	*>Letter>B
*>Label>Outro	*>Label>Outro	*>Label>Outro	*>Label>Outro	*>Label>Outro	*>Label>Outro	*>Label>Outro	*>Label>Outro
4d	Time	1.FM	newline	guitar	.	153.082	F:maj
8r	.	.	.	.	.	.	.
4d	Time	.	.	.	.	.	.
8r	.	.	.	.	.	.	.
4d	Time	.	.	.	.	.	.
8r	.	.	.	.	.	.	.
8d	is	.	.	.	.	.	.
8c	on	.	.	.	.	.	.
[8A	my	.	.	.	.	.	.
=44	=44	=44	=44	=44	=44	=44	=44
8A]	_	2.B-M	.	guitar	.	156.647	B-:maj
4F	side	.	.	.	.	.	.
4r	.	.	.	.	.	.	.
16d	yes	.	.	.	.	.	.
16f	it	.	.	.	.	.	.
4d	is	2.CM	.	guitar	.	158.429	C:maj
8r	.	.	.	.	.	.	.
4.r	.	.	.	.	.	.	.
=45	=45	=45	=45	=45	=45	=45	=45
4d	Time	1.FM	newline	guitar	.	160.211	F:maj
8r	.	.	.	.	.	.	.
4d	Time	.	.	.	.	.	.
8r	.	.	.	.	.	.	.
4d	Time	.	.	.	.	.	.
8r	.	.	.	.	.	.	.
8d	is	.	.	.	.	.	.
8c	on	.	.	.	.	.	.
[8A	my	.	.	.	.	.	.
=46	=46	=46	=46	=46	=46	=46	=46
8A]	_	2.B-M	.	guitar	.	163.786	B-:maj
4F	side	.	.	.	.	.	.
4r	.	.	.	.	.	.	.
16d	yes	.	.	.	.	.	.
16f	it	.	.	.	.	.	.
4d	is	2.CM	.	guitar	.	165.574	C:maj
8r	.	.	.	.	.	.	.
4.r	.	.	.	.	.	.	.
=47	=47	=47	=47	=47	=47	=47	=47
4d	Time	1.FM	newline	guitar	.	167.361	F:maj
8r	.	.	.	.	.	.	.
4d	Time	.	.	.	.	.	.
8r	.	.	.	.	.	.	.
4d	Time	.	.	.	.	.	.
8r	.	.	.	.	.	.	.
8d	is	.	.	.	.	.	.
8c	on	.	.	.	.	.	.
[8A	my	.	.	.	.	.	.
=48	=48	=48	=48	=48	=48	=48	=48
8A]	_	2.B-M	.	guitar	.	170.966	B-:maj
4F	side	.	.	.	.	.	.
4.r	.	.	.	.	.	.	.
2.r	.	2.CM	.	guitar	.	172.768	C:maj
=49	=49	=49	=49	=49	=49	=49	=49
1.r	.	1.FM	newline	voice	.	174.571	F:maj
r;	.	1r;	.	r	.	177.988	N.C.
r;	.	1r;	.	r	.	178.782	N.C.
*-	*-	*-	*-	*-	*-	*-	*-
!!!BillboardChartDate: 1964/11/14, 1964/11/07, 1964/10/24
!!!BillboardPeak: 6, 6, 6
!!!BillboardWeeksOnChart: 13, 13, 13
!!!COC: The Rolling Stones
!!!ENC: Nathaniel Condit-Schultz
!!!EST: Awating manual error checking and editing.
!!!OTL: Time Is On My Side
!!!RDF**chordsym: original McGill chord annotation + (implied pitch class set, with bass pitch in first position)
!!!RDF**harmony: **recip + pitch class of root + harmonic quality
!!!RDF**leadinstrument: original McGill primary instrumentation annotation
!!!RDF**phrase: newline = linebreak in original McGill transcription
!!!RDF**timestamp: McGill audio timestamp in seconds
!!!RDT: 2017/01/12/
!!!SampleActualRank: 18, 30, 65
!!!SampleID#: 387, 597, 780
!!!SampleTargetRank: 18, 31, 64
